flaticon/outdoor/compass-1.svg

<svg xmlns="http://www.w3.org/2000/svg" width="32" height="32" viewBox="0 0 24 24">
    <path d="M4.582031 13.832031C4.4375 13.242188 4.359375 12.628906 4.359375 12.011719 4.359375 11.789062 4.179688 11.613281 3.957031 11.613281 3.738281 11.613281 3.558594 11.792969 3.558594 12.011719 3.558594 12.695312 3.640625 13.371094 3.804688 14.027344 3.847656 14.207031 4.011719 14.332031 4.191406 14.332031 4.226562 14.332031 4.257812 14.328125 4.289062 14.320312 4.503906 14.265625 4.636719 14.046875 4.582031 13.832031zM9.109375 4.90625C9.15625 4.90625 9.207031 4.898438 9.253906 4.882812 9.824219 4.664062 10.425781 4.511719 11.03125 4.4375 11.253906 4.410156 11.410156 4.210938 11.382812 3.992188 11.355469 3.773438 11.15625 3.617188 10.933594 3.640625 10.261719 3.726562 9.601562 3.890625 8.96875 4.132812 8.761719 4.210938 8.65625 4.441406 8.734375 4.648438 8.796875 4.808594 8.949219 4.90625 9.109375 4.90625zM4.089844 10.484375C4.121094 10.492188 4.152344 10.496094 4.183594 10.496094 4.367188 10.496094 4.53125 10.371094 4.574219 10.1875 4.71875 9.59375 4.9375 9.015625 5.222656 8.472656 5.324219 8.277344 5.246094 8.035156 5.050781 7.929688 4.855469 7.828125 4.613281 7.90625 4.511719 8.101562 4.195312 8.703125 3.957031 9.339844 3.796875 10 3.742188 10.214844 3.875 10.433594 4.089844 10.484375zM12.867188 4.433594C13.480469 4.503906 14.078125 4.648438 14.652344 4.863281 14.699219 4.882812 14.746094 4.890625 14.792969 4.890625 14.957031 4.890625 15.109375 4.789062 15.167969 4.628906 15.246094 4.421875 15.140625 4.191406 14.933594 4.113281 14.300781 3.875 13.636719 3.714844 12.960938 3.636719 12.734375 3.609375 12.542969 3.769531 12.519531 3.988281 12.492188 4.207031 12.648438 4.40625 12.867188 4.433594zM19.261719 15.367188C19.066406 15.261719 18.824219 15.339844 18.722656 15.535156 18.4375 16.078125 18.085938 16.585938 17.675781 17.042969 17.53125 17.210938 17.546875 17.460938 17.710938 17.609375 17.789062 17.675781 17.882812 17.710938 17.976562 17.710938 18.085938 17.710938 18.199219 17.664062 18.277344 17.578125 18.726562 17.070312 19.117188 16.507812 19.429688 15.90625 19.535156 15.710938 19.457031 15.46875 19.261719 15.367188zM19.363281 10.144531C19.410156 10.324219 19.574219 10.445312 19.753906 10.445312 19.785156 10.445312 19.816406 10.445312 19.851562 10.433594 20.066406 10.382812 20.195312 10.164062 20.140625 9.949219 19.976562 9.292969 19.734375 8.65625 19.414062 8.054688 19.3125 7.859375 19.070312 7.785156 18.871094 7.890625 18.679688 7.992188 18.601562 8.234375 18.707031 8.429688 18.996094 8.972656 19.214844 9.550781 19.363281 10.144531zM19.992188 11.578125C19.769531 11.578125 19.589844 11.773438 19.589844 11.996094 19.589844 12.613281 19.515625 13.226562 19.371094 13.816406 19.320312 14.03125 19.449219 14.25 19.664062 14.304688 19.695312 14.3125 19.730469 14.316406 19.761719 14.316406 19.941406 14.316406 20.105469 14.191406 20.148438 14.007812 20.3125 13.355469 20.390625 12.679688 20.390625 11.980469L19.992188 11.964844 20.390625 11.964844C20.390625 11.742188 20.214844 11.578125 19.992188 11.578125zM16.304688 18.261719C15.800781 18.613281 15.253906 18.898438 14.683594 19.117188 14.476562 19.195312 14.371094 19.425781 14.449219 19.632812 14.511719 19.792969 14.664062 19.894531 14.824219 19.894531 14.871094 19.894531 14.921875 19.882812 14.96875 19.867188 15.601562 19.625 16.203125 19.308594 16.761719 18.921875 16.945312 18.796875 16.988281 18.546875 16.863281 18.363281 16.738281 18.183594 16.488281 18.136719 16.304688 18.261719zM12.902344 19.554688C12.597656 19.59375 12.289062 19.613281 11.980469 19.613281 11.660156 19.605469 11.367188 19.59375 11.066406 19.558594 10.847656 19.53125 10.644531 19.691406 10.621094 19.910156 10.59375 20.128906 10.75 20.328125 10.972656 20.355469 11.300781 20.394531 11.640625 20.414062 11.976562 20.414062 11.976562 20.414062 11.976562 20.414062 11.980469 20.414062 12.320312 20.414062 12.664062 20.390625 13 20.351562 13.21875 20.324219 13.375 20.125 13.347656 19.90625 13.320312 19.6875 13.125 19.53125 12.902344 19.554688zM17.957031 7.058594C18.050781 7.058594 18.148438 7.027344 18.222656 6.957031 18.390625 6.808594 18.402344 6.558594 18.253906 6.390625 17.804688 5.886719 17.292969 5.4375 16.734375 5.050781 16.550781 4.925781 16.300781 4.972656 16.175781 5.15625 16.050781 5.339844 16.097656 5.589844 16.28125 5.714844 16.785156 6.058594 17.25 6.46875 17.65625 6.925781 17.738281 7.015625 17.847656 7.058594 17.957031 7.058594zM7.734375 5.179688C7.605469 5 7.355469 4.957031 7.175781 5.082031 6.617188 5.46875 6.109375 5.921875 5.660156 6.429688 5.515625 6.597656 5.53125 6.847656 5.695312 6.996094 5.773438 7.0625 5.867188 7.097656 5.960938 7.097656 6.070312 7.097656 6.183594 7.050781 6.261719 6.960938 6.667969 6.5 7.128906 6.089844 7.632812 5.738281 7.8125 5.613281 7.859375 5.363281 7.734375 5.179688zM9.28125 19.121094C8.710938 18.90625 8.164062 18.621094 7.65625 18.269531 7.472656 18.144531 7.226562 18.191406 7.097656 18.375 6.972656 18.554688 7.019531 18.804688 7.203125 18.929688 7.761719 19.316406 8.367188 19.632812 9 19.875 9.046875 19.890625 9.09375 19.898438 9.140625 19.898438 9.300781 19.898438 9.453125 19.800781 9.515625 19.640625 9.59375 19.433594 9.488281 19.199219 9.28125 19.121094zM5.234375 15.546875C5.132812 15.351562 4.890625 15.277344 4.695312 15.378906 4.5 15.484375 4.421875 15.726562 4.527344 15.921875 4.84375 16.519531 5.230469 17.082031 5.683594 17.589844 5.761719 17.675781 5.871094 17.722656 5.980469 17.722656 6.078125 17.722656 6.171875 17.6875 6.25 17.621094 6.414062 17.472656 6.429688 17.21875 6.28125 17.054688 5.875 16.597656 5.523438 16.089844 5.234375 15.546875zM14.3125 13.71875L12.945312 12.351562 15.984375 12.351562C16.207031 12.351562 16.382812 12.171875 16.382812 11.949219 16.382812 11.730469 16.207031 11.550781 15.984375 11.550781L13.023438 11.550781 14.3125 10.277344C14.46875 10.121094 14.46875 9.867188 14.3125 9.710938 14.15625 9.554688 13.90625 9.550781 13.746094 9.707031L12.425781 11.011719 12.425781 7.988281C12.425781 7.765625 12.246094 7.585938 12.023438 7.585938 11.804688 7.585938 11.625 7.765625 11.625 7.988281L11.625 11.027344 10.304688 9.707031C10.148438 9.550781 9.894531 9.550781 9.738281 9.707031 9.582031 9.867188 9.582031 10.117188 9.738281 10.277344L11.011719 11.550781 7.96875 11.550781C7.746094 11.550781 7.566406 11.730469 7.566406 11.949219 7.566406 12.171875 7.746094 12.351562 7.96875 12.351562L11.070312 12.351562 9.6875 13.714844C9.53125 13.871094 9.53125 14.125 9.683594 14.28125 9.765625 14.359375 9.867188 14.402344 9.96875 14.402344 10.074219 14.402344 10.175781 14.363281 10.253906 14.285156L11.625 12.929688 11.625 16.003906C11.625 16.226562 11.804688 16.40625 12.023438 16.40625 12.246094 16.40625 12.425781 16.226562 12.425781 16.003906L12.425781 12.964844 13.746094 14.285156C13.824219 14.363281 13.925781 14.402344 14.027344 14.402344 14.132812 14.402344 14.234375 14.363281 14.3125 14.285156 14.46875 14.128906 14.46875 13.875 14.3125 13.71875zM14.3125 13.71875"/>
    <path d="M 23.726562 11.300781 L 22.714844 10.71875 C 22.117188 5.644531 18.078125 1.707031 12.992188 1.230469 L 12.453125 0.300781 C 12.355469 0.128906 12.171875 0.0234375 11.976562 0.0234375 C 11.777344 0.0234375 11.597656 0.128906 11.496094 0.300781 L 10.960938 1.226562 C 5.835938 1.707031 1.699219 5.835938 1.207031 10.960938 L 0.296875 11.488281 C 0.113281 11.59375 0 11.789062 0 12 C 0 12.210938 0.113281 12.40625 0.296875 12.511719 L 1.214844 13.042969 C 1.703125 18.132812 5.65625 22.160156 10.738281 22.738281 L 11.28125 23.679688 C 11.386719 23.863281 11.582031 23.976562 11.792969 23.976562 C 12.003906 23.976562 12.199219 23.863281 12.304688 23.679688 L 12.824219 22.78125 C 18.148438 22.367188 22.367188 18.136719 22.765625 12.808594 L 23.726562 12.253906 C 23.894531 12.15625 24 11.972656 24 11.777344 C 24 11.582031 23.894531 11.398438 23.726562 11.300781 Z M 12.019531 1.152344 L 12.753906 2.425781 L 11.195312 2.425781 L 11.976562 1.078125 Z M 1.128906 11.929688 L 2.359375 11.222656 L 2.359375 12.777344 L 1.128906 12.070312 L 1.011719 12 Z M 11.792969 22.964844 L 11.722656 22.839844 L 11.015625 21.617188 L 12.570312 21.617188 L 11.863281 22.839844 Z M 13.320312 21.925781 L 13.507812 21.597656 C 13.601562 21.433594 13.601562 21.234375 13.507812 21.074219 C 13.414062 20.914062 13.242188 20.816406 13.058594 20.816406 L 10.53125 20.816406 C 10.34375 20.816406 10.171875 20.914062 10.078125 21.074219 C 9.984375 21.234375 9.984375 21.4375 10.078125 21.597656 L 10.234375 21.863281 C 6.003906 21.128906 2.726562 17.785156 2.074219 13.539062 L 2.378906 13.714844 C 2.398438 13.726562 2.417969 13.730469 2.4375 13.738281 C 2.5 13.765625 2.570312 13.785156 2.640625 13.785156 C 2.667969 13.785156 2.695312 13.777344 2.722656 13.773438 C 2.742188 13.769531 2.757812 13.773438 2.773438 13.765625 C 2.816406 13.753906 2.859375 13.738281 2.902344 13.714844 C 3.0625 13.621094 3.160156 13.449219 3.160156 13.261719 L 3.160156 10.734375 C 3.160156 10.550781 3.0625 10.378906 2.898438 10.285156 C 2.859375 10.261719 2.816406 10.242188 2.773438 10.230469 C 2.640625 10.199219 2.496094 10.214844 2.378906 10.285156 L 2.074219 10.460938 C 2.742188 6.171875 6.175781 2.75 10.460938 2.09375 L 10.261719 2.445312 C 10.167969 2.605469 10.167969 2.804688 10.261719 2.964844 C 10.289062 3.015625 10.332031 3.058594 10.375 3.097656 C 10.46875 3.175781 10.585938 3.226562 10.710938 3.226562 L 13.238281 3.226562 C 13.285156 3.226562 13.332031 3.21875 13.375 3.207031 C 13.382812 3.207031 13.386719 3.203125 13.394531 3.199219 C 13.429688 3.1875 13.464844 3.175781 13.5 3.15625 C 13.503906 3.152344 13.511719 3.148438 13.515625 3.144531 C 13.546875 3.121094 13.578125 3.101562 13.605469 3.074219 C 13.640625 3.042969 13.667969 3.003906 13.691406 2.964844 C 13.710938 2.933594 13.722656 2.894531 13.734375 2.859375 C 13.738281 2.851562 13.742188 2.847656 13.742188 2.839844 C 13.75 2.808594 13.753906 2.777344 13.753906 2.742188 C 13.757812 2.730469 13.761719 2.71875 13.761719 2.707031 C 13.761719 2.679688 13.753906 2.652344 13.75 2.625 C 13.746094 2.605469 13.746094 2.589844 13.742188 2.570312 C 13.742188 2.566406 13.738281 2.558594 13.734375 2.554688 C 13.726562 2.515625 13.710938 2.480469 13.691406 2.445312 L 13.488281 2.089844 C 17.730469 2.730469 21.082031 5.992188 21.835938 10.210938 L 21.578125 10.0625 C 21.417969 9.96875 21.21875 9.96875 21.058594 10.0625 C 20.898438 10.15625 20.796875 10.328125 20.796875 10.515625 L 20.796875 13.039062 C 20.796875 13.226562 20.898438 13.398438 21.058594 13.492188 C 21.140625 13.539062 21.230469 13.5625 21.320312 13.5625 C 21.410156 13.5625 21.5 13.539062 21.578125 13.492188 L 21.910156 13.300781 C 21.332031 17.789062 17.804688 21.328125 13.320312 21.925781 Z M 21.601562 12.554688 L 21.601562 11 L 22.820312 11.703125 L 22.949219 11.777344 Z M 21.601562 12.554688"/>
</svg>

<svg xmlns="http://www.w3.org/2000/svg" width="32" height="32" viewBox="0 0 24 24">
    <path d="M4.582 13.832a7.665 7.665 0 0 1-.223-1.82.4.4 0 1 0-.8 0c0 .683.082 1.36.246 2.015a.4.4 0 1 0 .777-.195zm0 0M9.11 4.906a.466.466 0 0 0 .144-.023 7.552 7.552 0 0 1 1.777-.446.4.4 0 0 0 .352-.445.407.407 0 0 0-.45-.351 8.522 8.522 0 0 0-1.964.492.4.4 0 0 0-.235.515c.063.16.215.258.375.258zm0 0M4.09 10.484a.4.4 0 0 0 .484-.297 7.522 7.522 0 0 1 .649-1.714.407.407 0 0 0-.172-.543.401.401 0 0 0-.54.172A8.251 8.251 0 0 0 3.798 10a.398.398 0 0 0 .293.484zm0 0M12.867 4.434c.613.07 1.211.214 1.785.43a.4.4 0 0 0 .516-.234.4.4 0 0 0-.234-.517 8.313 8.313 0 0 0-1.973-.476.393.393 0 0 0-.441.351.4.4 0 0 0 .347.446zm0 0M19.262 15.367a.396.396 0 0 0-.54.168 7.433 7.433 0 0 1-1.046 1.508.405.405 0 0 0 .035.566.411.411 0 0 0 .266.102c.109 0 .222-.047.3-.133.45-.508.84-1.07 1.153-1.672a.396.396 0 0 0-.168-.539zm0 0M19.363 10.145c.047.18.211.3.39.3.032 0 .063 0 .099-.011a.395.395 0 0 0 .289-.485 8.325 8.325 0 0 0-.727-1.894.398.398 0 0 0-.543-.164.398.398 0 0 0-.164.539c.29.543.508 1.12.656 1.715zm0 0M19.992 11.578a.415.415 0 0 0-.402.418c0 .617-.074 1.23-.219 1.82a.407.407 0 0 0 .39.5.4.4 0 0 0 .387-.308 8.28 8.28 0 0 0 .243-2.028l-.399-.015h.399a.385.385 0 0 0-.399-.387zm0 0M16.305 18.262a7.572 7.572 0 0 1-1.621.855.4.4 0 0 0-.235.516c.063.16.215.262.375.262a.473.473 0 0 0 .145-.028 8.46 8.46 0 0 0 1.793-.945.401.401 0 1 0-.457-.66zm0 0M12.902 19.555c-.304.039-.613.058-.922.058a9.824 9.824 0 0 1-.914-.054.4.4 0 1 0-.093.796c.328.04.668.06 1.004.06h.003c.34 0 .684-.024 1.02-.063a.4.4 0 0 0 .348-.446.403.403 0 0 0-.446-.351zm0 0M17.957 7.059a.385.385 0 0 0 .266-.102.398.398 0 0 0 .03-.566 8.568 8.568 0 0 0-1.519-1.34.402.402 0 1 0-.453.664 7.51 7.51 0 0 1 1.375 1.21c.082.09.192.134.301.134zm0 0M7.734 5.18a.405.405 0 0 0-.558-.098A8.433 8.433 0 0 0 5.66 6.43a.405.405 0 0 0 .035.566.411.411 0 0 0 .266.102c.11 0 .223-.047.3-.137a7.7 7.7 0 0 1 1.372-1.223.404.404 0 0 0 .101-.558zm0 0M9.281 19.121a7.502 7.502 0 0 1-1.625-.851.402.402 0 0 0-.558.105.398.398 0 0 0 .105.555A8.488 8.488 0 0 0 9 19.875a.404.404 0 0 0 .516-.234.405.405 0 0 0-.235-.52zm0 0M5.234 15.547a.4.4 0 1 0-.707.375c.317.598.703 1.16 1.157 1.668a.404.404 0 0 0 .566.031.401.401 0 0 0 .031-.566 7.759 7.759 0 0 1-1.047-1.508zm0 0M14.313 13.719l-1.368-1.367h3.04c.222 0 .398-.18.398-.403a.398.398 0 0 0-.399-.398h-2.96l1.289-1.274a.4.4 0 0 0 0-.566.4.4 0 0 0-.567-.004l-1.32 1.305V7.988a.401.401 0 0 0-.8 0l-.001 3.04-1.32-1.321a.4.4 0 0 0-.567 0 .406.406 0 0 0 0 .57l1.274 1.274H7.969a.401.401 0 1 0 0 .8h3.101l-1.383 1.364a.404.404 0 0 0-.003.566.399.399 0 0 0 .57.004l1.371-1.355v3.074a.401.401 0 1 0 .8 0v-3.04l1.321 1.321a.399.399 0 0 0 .566 0 .4.4 0 0 0 0-.566zm0 0"/>
    <path d="M23.727 11.3l-1.012-.581a10.78 10.78 0 0 0-9.723-9.489L12.453.3a.55.55 0 0 0-.957 0l-.535.927c-5.125.48-9.262 4.609-9.754 9.734l-.91.527a.59.59 0 0 0 0 1.024l.918.531a10.769 10.769 0 0 0 9.523 9.695l.543.942a.59.59 0 0 0 1.024 0l.52-.899a10.804 10.804 0 0 0 9.94-9.972l.962-.555a.554.554 0 0 0 0-.953zM12.02 1.153l.734 1.274h-1.559l.782-1.348zM1.129 11.93l1.23-.707v1.554l-1.23-.707-.117-.07zm10.664 11.035l-.07-.125-.707-1.223h1.554l-.707 1.223zm1.527-1.04l.188-.327a.521.521 0 1 0-.45-.781h-2.527a.523.523 0 0 0-.453.257.522.522 0 0 0 0 .524l.156.265a9.974 9.974 0 0 1-8.16-8.324l.305.176c.02.012.039.015.058.023a.515.515 0 0 0 .204.047c.027 0 .054-.008.082-.012.02-.003.035 0 .05-.007a.589.589 0 0 0 .13-.051.523.523 0 0 0 .257-.453v-2.528a.517.517 0 0 0-.262-.449.507.507 0 0 0-.125-.055.534.534 0 0 0-.394.055l-.305.176c.668-4.29 4.102-7.711 8.387-8.367l-.2.351a.515.515 0 0 0 .114.653c.094.078.21.129.336.129h2.527a.525.525 0 0 0 .137-.02c.008 0 .012-.004.02-.008a.599.599 0 0 0 .105-.043c.004-.004.012-.008.016-.011.03-.024.062-.043.09-.07a.462.462 0 0 0 .085-.11c.02-.031.032-.07.043-.106.004-.007.008-.011.008-.02a.394.394 0 0 0 .012-.097c.004-.012.008-.023.008-.035 0-.027-.008-.055-.012-.082-.004-.02-.004-.035-.008-.055a.03.03 0 0 0-.008-.015.375.375 0 0 0-.043-.11l-.203-.355a9.985 9.985 0 0 1 8.348 8.12l-.258-.148a.515.515 0 0 0-.52 0 .527.527 0 0 0-.261.454v2.523a.527.527 0 0 0 .523.524c.09 0 .18-.024.258-.07l.332-.192a9.993 9.993 0 0 1-8.59 8.625zm8.282-9.37V11l1.218.703.13.074zm0 0"/>
</svg>
